svgs/sharp-light/arrow-up-from-square.svg

<svg xmlns="http://www.w3.org/2000/svg" viewBox="0 0 512 512"><!--! Font Awesome Pro 6.6.0 by @fontawesome - https://fontawesome.com License - https://fontawesome.com/license (Commercial License) Copyright 2024 Fonticons, Inc. --><path d="M267.3 12.7L256 1.4 244.7 12.7l-104 104L129.4 128 152 150.6l11.3-11.3L240 62.6 240 320l0 16 32 0 0-16 0-257.4 76.7 76.7L360 150.6 382.6 128l-11.3-11.3-104-104zM16 32L0 32 0 48 0 496l0 16 16 0 480 0 16 0 0-16 0-448 0-16-16 0-80 0-16 0 0 32 16 0 64 0 0 416L32 480 32 64l64 0 16 0 0-32L96 32 16 32z"/></svg>

<svg xmlns="http://www.w3.org/2000/svg" viewBox="0 0 512 512"><!--! Font Awesome Pro 6.5.2 by @fontawesome - https://fontawesome.com License - https://fontawesome.com/license (Commercial License) Copyright 2024 Fonticons, Inc. --><path d="M267.3 12.7L256 1.4 244.7 12.7l-104 104L129.4 128 152 150.6l11.3-11.3L240 62.6V320v16h32V320 62.6l76.7 76.7L360 150.6 382.6 128l-11.3-11.3-104-104zM16 32H0V48 496v16H16 496h16V496 48 32H496 416 400V64h16 64V480H32V64H96h16V32H96 16z"/></svg>
